X:1
T:E minor                 Jeremiah Ingalls, 1805
T:Anonymous Author, Apparently first published in 1805        76. 76. 76. 76.
T:Rejoice in Thy Youth
T:Transcribed from Ingalls' Christian Harmony, 1805; Counter by B. C. Johnston, 2017.
%%score [ 1 2 3 4 ]
L:1/8
Q:1/4=130
M:4/4
K:G
V:1 treble nm="Tr." snm="Tr."
V:2 treble nm="C." snm="C."
V:3 treble-8 nm="T." snm="T."
V:4 bass nm="B." snm="B."
V:1
"^1. Young man, indulge thy passion,  And  lavish  out    thy  youth     In   eve–ry  sin – ful   fa  – shion,  And  don't  regard  the truth;  Nor fear God's threatening ensigns, But\n2. When  God  shall  send  his angels   To  reap  his  har –vest down,   The tares he'll bind in bundles,   And flames shall clasp them round;  The  pit will  close upon them, Shut" B4 | %1
 e2 e2 B2 e2 | d4 e2 B2 | B2 e2 ^d2 c2 | B4 z2 G2 | B2 B2 B2 B2 | B4 e2 B2 | B2 d2 d2 ^c2 | %8
 d4 z2 G2 | B2 B2 B2 B2 | B4 e2 B2 | %11
"^1. what you list, that do; _____  But  know that this  is seed time,  There comes a harvest too.\n2. up  in  keen  des – pair, ____   And   not   a   ray of sun – beam   Shall ever reach them there!" B2 d2 d2 e2 | %12
 (d2 ef g2) B2 | e2 e2 B2 e2 | d4 e2 B2 | B2 e2 d2 c2 | B8 |] %17
V:2
"^3. Or     are   you  at  a –gree –ment,  In league with death and hell,   And by thy great a–chieve–ments  Are sure that  all     is    well?      If  you, like  God, can  thun–der,  And\n4.  But  yet  your  glass is  run–ning, And vengeance yet doth wait.  But  soon  the  day  is  co – ming,   When  it  will  be  too   late;      The    ju – bi – lee  is  soun –ding,  Then" G4 | %1
 E2 G2 B2 c2 | B4 B2 G2 | B2 c2 ^d2 c2 | B4 z2 G2 | E2 G2 B2 G2 | (E3 ^D) E2 E2 | G2 B2 G2 E2 | %8
 D4 z2 G2 | B2 G2 E2 ^D2 | (E3 F) G2 B2 | %11
"^3. hast the keys of hell, _______  I’ll   own   we  need  not  won–der   If  all    at    last   is    well.\n4. don't be found, at last, _____  God’s  Ho –ly  Spi– rit  wounding, And you in darkness cast." d2 B2 G2 E2 | %12
 (B2 A2 G2) E2 | E2 E2 B2 c2 | B4 B2 G2 | B2 E2 F2 D2 | E8 |] %17
V:3
"^5.  Wis–dom  has spread her ta–ble,  A  dy – ing  Sa – vior’s love,    The  feast  is  not    a    fa    –   ble,    By coming we may prove       It  leads  to  li – ving  foun – tains   Of\n6.  Then  come  receive instruction,  Ye  children, and be wise,  Before the threatening storm comes   And sweeps away your lives,   Lest  you have  this  la–men–ting, When" G4 | %1
 B2 G2 E2 c2 | B4 B2 G2 | E2 E2 F2 ^D2 | E4 z2 E2 | G2 G2 B2 ^d2 | (e3 f) g2 e2 | d2 B2 B2 G2 | %8
 A4 z2 E2 | G2 G2 B2 ^d2 | (e3 f) g2 e2 | %11
"^5.  o–ver–flo–wing  grace. _____  To  Zion’s  fragrant  mountains,   Where God unveils his face.\n6.  in  a  damn – ed  state,  _____    I    have  delayed  re–pen–ting,    And  now   it   is   too   late." d2 B2 B2 G2 | %12
 (d2 c2 d2) e2 | B3 G E2 c2 | B4 B2 G2 | E2 E2 F2 D2 | E8 |] %17
V:4
 E,4 | E,2 E,2 E,2 E,F, | G,4 E,2 E,2 | B,2 B,2 B,,2 B,,2 | E,4 z2 E,2 | E,2 E,2 E,2 B,,2 | %6
 E,4 E,2 E,2 | G,2 G,2 G,2 E,2 | D,4 z2 E,2 | E,2 E,2 E,2 B,,2 | E,4 E,2 E,2 | %11
"^_____________________________________________\nEdited by B. C. Johnston, 2017\n     1.  Measure 17., \nBass\n: note changed from D to E.\n     2. Counter part written." G,2 G,2 G,2 E,2 | %12
 (B,2 A,2 G,2) E,2 | E,2 E,2 E,2 E,2 | G,4 E,2 E,2 | B,2 B,2 B,,2 B,,2 | E,8 |] %17

